X: 26
T:Teddy O Neill
R:
Z:added by Alf 
M:3/4
L:1/8
K:G
D2| B2 B3B|B3A B2| c3E A2| G2 F2 E2|
D3E F2| G3F G2| B2 A2 G2| A4 DG|
B2 B3B|B3A B2| c3E A2| G2 F2 E2|
D3G B2| d2 c2 B2| A2 E2 F2| G4 G2||
A3A A2| A3A B2| c3B A2| B2 G2 G2|
G3G G2| G3F G2| B2 A2 G2| A4 DG|
B3B B2| B3A B2| c3E A2| G2 F2 E2|
D3G B2| d2 c2 B2| A2 E2 F2| G4 D2|]
